X: 91
T:Feathers
% Nottingham Music Database
S:EF
M:6/8
K:G
B/2A/2|"G"G2G G2g|"C"gfe "G"d3|"Am"c2B A2G|"D7"FGA DEF|"G"G2G G2g|
"C"gfe "D"d2c|"Em"BAG "D7"AGF|"G"G3 GFE|"D"D2D D2d|"Em"dcB "Am"c3|"D"D2D D2c|
"Am"cBA "D7"B2A|"G"G2G G2g|"C"gfe "D"d2c|"Em"BAG "D7"AGF|"G"G3 G2||
<end>
<start>
